Hatter-kde-dark/actions/22/kstars_constellationart.svg

<svg xmlns="http://www.w3.org/2000/svg" viewBox="0 0 22 22">
  <defs id="defs3051">
    <style type="text/css" id="current-color-scheme">
      .ColorScheme-Text {
        color:#dedede;
      }
      </style>
  </defs>
 <path 
     style="fill:currentColor;fill-opacity:1;stroke:none" 
     d="M 6.1679688,2.015625 C 5.9110088,1.9170648 5.6328519,2.3104271 5.5449219,2.8964844 5.4656789,3.4246825 5.5472328,6.2139553 5.6523438,6.5742188 5.7043718,6.7525398 5.6178466,6.8366112 5.1660156,7.046875 4.5019686,7.355895 3.5475828,8.2595435 3.2304688,8.8808594 3.0925597,9.1510596 3,9.538221 3,9.8398438 c 0,0.4401542 0.053471,0.5594932 0.4101562,0.9160152 0.432368,0.432172 0.8873398,0.60784 1.8710938,0.720703 0.328613,0.0377 0.6631375,0.119121 0.7421875,0.181641 0.281505,0.222621 0.561689,0.944271 0.671875,1.724609 0.069579,0.492764 0.2617124,1.109964 0.5058594,1.63086 0.391134,0.834505 0.3921425,0.839263 0.3203125,1.898437 -0.039645,0.584556 -0.1266694,1.419543 -0.1933594,1.853516 -0.109063,0.709725 -0.1031164,0.810199 0.072266,1.003906 0.298794,0.330021 1.0788668,0.299669 1.3085938,-0.05078 0.171711,-0.261945 0.394771,-1.027813 0.53125,-1.824219 L 9.3105469,17.488281 9.8222656,17.75 c 0.2898814,0.148899 0.5903744,0.408243 0.6953124,0.597656 l 0.185547,0.333985 -0.296875,0 c -0.440458,0 -0.7792969,0.283183 -0.7792969,0.65039 C 9.6269531,19.98303 10,20 10,20 l 6,0 c 1,0 1.058718,-0.211372 1.146484,-1.146484 0.02519,-0.268424 0.102631,-0.342785 0.5,-0.47461 0.955811,-0.317088 1.579116,-1.305432 1.277344,-2.027344 -0.161353,-0.385998 -0.667106,-0.657035 -1.080078,-0.578124 -0.244654,0.04675 -0.264105,0.0081 -0.369141,-0.720704 C 17.250865,13.500303 16.626697,12.435565 15.503906,11.6875 14.67212,11.133317 13.73575,10.877969 12.123047,10.763672 10.59553,10.655414 10.087723,10.4801 9.5898438,9.8886719 9.4353357,9.7051323 9.2807638,9.3725862 9.2460938,9.1503906 9.1013707,8.22292 8.9451966,7.8710575 8.4785156,7.421875 L 8.0058594,6.9648438 8.2167969,6.3515625 c 0.628371,-1.8255676 0.7290332,-4.2832031 0.1757812,-4.2832031 -0.312813,0 -0.8024425,0.7559969 -1.1484375,1.7734375 L 7.0605469,4.3789062 6.9199219,3.7402344 C 6.7323379,2.8878447 6.3888418,2.100344 6.1679688,2.015625 Z M 5.5,8 C 5.7761424,8 6,8.2238576 6,8.5 6,8.7761424 5.7761424,9 5.5,9 5.2238576,9 5,8.7761424 5,8.5 5,8.2238576 5.2238576,8 5.5,8 Z"
	 class="ColorScheme-Text"
     />
</svg>

<?xml version="1.0" encoding="UTF-8"?>
<svg viewBox="0 0 22 22" xmlns="http://www.w3.org/2000/svg">
 <defs id="defs3051">
  <style id="current-color-scheme" type="text/css">.ColorScheme-Text {
        color:#dedede;
      }</style>
 </defs>
 <path class="ColorScheme-Text" d="m6.168 2.0156c-0.25696-0.09856-0.53512 0.2948-0.62305 0.88086-0.079243 0.5282 0.0023109 3.3175 0.10742 3.6777 0.052028 0.17832-0.034497 0.26239-0.48633 0.47266-0.66405 0.30902-1.6184 1.2127-1.9355 1.834-0.13791 0.2702-0.23047 0.65736-0.23047 0.95898 0 0.44015 0.053471 0.55949 0.41016 0.91602 0.43237 0.43217 0.88734 0.60784 1.8711 0.7207 0.32861 0.0377 0.66314 0.11912 0.74219 0.18164 0.2815 0.22262 0.56169 0.94427 0.67188 1.7246 0.069579 0.49276 0.26171 1.11 0.50586 1.6309 0.39113 0.8345 0.39214 0.83926 0.32031 1.8984-0.039645 0.58456-0.12667 1.4195-0.19336 1.8535-0.10906 0.70972-0.10312 0.8102 0.072266 1.0039 0.29879 0.33002 1.0789 0.29967 1.3086-0.05078 0.17171-0.26194 0.39477-1.0278 0.53125-1.8242l0.070312-0.40625 0.51172 0.26172c0.28988 0.1489 0.59037 0.40824 0.69531 0.59766l0.18555 0.33398h-0.29688c-0.44046 0-0.7793 0.28318-0.7793 0.65039 0 0.651 0.37305 0.66797 0.37305 0.66797h6c1 0 1.0587-0.21137 1.1465-1.1465 0.02519-0.26842 0.10263-0.34278 0.5-0.47461 0.95581-0.31709 1.5791-1.3054 1.2773-2.0273-0.16135-0.386-0.66711-0.65704-1.0801-0.57812-0.24465 0.04675-0.2641 0.0081-0.36914-0.7207-0.22374-1.5524-0.84791-2.6172-1.9707-3.3652-0.83179-0.55418-1.7682-0.80953-3.3809-0.92383-1.5275-0.10826-2.0353-0.28357-2.5332-0.875-0.15451-0.18354-0.30908-0.51609-0.34375-0.73828-0.14472-0.92747-0.3009-1.2793-0.76758-1.7285l-0.47266-0.45703 0.21094-0.61328c0.62837-1.8256 0.72903-4.2832 0.17578-4.2832-0.31281 0-0.80244 0.756-1.1484 1.7734l-0.18359 0.53711-0.14062-0.63867c-0.18758-0.85239-0.53108-1.6399-0.75195-1.7246zm-0.66797 5.9844c0.27614 0 0.5 0.22386 0.5 0.5s-0.22386 0.5-0.5 0.5-0.5-0.22386-0.5-0.5 0.22386-0.5 0.5-0.5z" fill="currentColor"/>
</svg>
